src/assets/svg/quote.svg

<svg width="75" height="54" viewBox="0 0 75 54" fill="none" xmlns="http://www.w3.org/2000/svg">
<path d="M32.7168 7.46809L22.9592 22.4043C25.8929 23.4255 28.3163 25.2766 30.2296 27.9574C32.1429 30.5106 33.0995 33.6383 33.0995 37.3404C33.0995 41.9362 31.5051 45.8936 28.3163 49.2128C25.1276 52.4043 21.2372 54 16.6454 54C12.0536 54 8.09949 52.4043 4.78316 49.2128C1.59439 45.8936 0 41.9362 0 37.3404C0 34.9149 0.382653 32.7447 1.14796 30.8298C2.04082 28.9149 3.25255 26.8723 4.78316 24.7021L21.4286 0L32.7168 7.46809ZM74.6173 7.46809L64.8597 22.4043C67.7934 23.4255 70.2168 25.2766 72.1301 27.9574C74.0434 30.5106 75 33.6383 75 37.3404C75 41.9362 73.4056 45.8936 70.2168 49.2128C67.0281 52.4043 63.1378 54 58.5459 54C53.9541 54 50 52.4043 46.6837 49.2128C43.4949 45.8936 41.9005 41.9362 41.9005 37.3404C41.9005 34.9149 42.2832 32.7447 43.0485 30.8298C43.9413 28.9149 45.1531 26.8723 46.6837 24.7021L63.3291 0L74.6173 7.46809Z" fill="#141416" fill-opacity="0.7"/>
</svg>

<svg xmlns="http://www.w3.org/2000/svg" width="75" height="54" fill="none"><path fill="#141416" fill-opacity=".7" d="m32.717 7.468-9.758 14.936q4.4 1.532 7.27 5.553 2.87 3.83 2.87 9.383 0 6.894-4.783 11.873Q23.533 54 16.646 54q-6.888 0-11.863-4.787Q0 44.233 0 37.34q0-3.638 1.148-6.51 1.34-2.873 3.635-6.128L21.43 0zm41.9 0L64.86 22.404q4.4 1.532 7.27 5.553Q75 31.787 75 37.34q0 6.894-4.783 11.873Q65.433 54 58.546 54q-6.888 0-11.862-4.787Q41.9 44.233 41.9 37.34q0-3.638 1.147-6.51 1.34-2.873 3.636-6.128L63.329 0z"/></svg>
